packages/foundations/assets/icons/functional/images/security/key_28.svg

<svg width="28" height="28" viewBox="0 0 28 28" fill="none" xmlns="http://www.w3.org/2000/svg">
<g clip-path="url(#clip0_187_265)">
<path fill-rule="evenodd" clip-rule="evenodd" d="M21.3191 1.74923L25.1236 1.75973C25.7589 1.83936 26.2506 2.38098 26.2506 3.03811L26.2393 6.85048C26.2025 7.12961 26.0748 7.39036 25.8735 7.59161L24.8489 8.60398C24.6905 8.72911 24.5041 8.81486 24.3046 8.85511L22.8705 9.14123L22.5406 10.7381C22.3945 11.1677 22.0296 11.4932 21.5764 11.5842L20.1379 11.8721L19.8115 13.4567C19.7485 13.6484 19.6409 13.8242 19.4974 13.9677L16.945 16.5227C17.6503 19.1591 16.9214 22.009 14.943 23.9874C11.9251 27.0052 7.03127 27.0052 4.01339 23.9874C0.994641 20.9686 0.994641 16.0756 4.01339 13.0569C5.99352 11.0767 8.84514 10.3505 11.4789 11.0557L20.536 2.01523C20.7591 1.84373 21.0348 1.74923 21.3191 1.74923ZM21.5256 3.50011L12.0013 13.007L11.0265 12.7462C10.5216 12.6106 10.001 12.5424 9.47864 12.5424C7.88177 12.5424 6.38027 13.1645 5.25064 14.2941C2.91964 16.6251 2.91964 20.4182 5.25064 22.7492C6.38027 23.8789 7.88177 24.501 9.47864 24.501C11.0746 24.501 12.5761 23.8789 13.7058 22.7492C15.2116 21.2451 15.804 19.0314 15.2545 16.9751L14.9938 15.9995L18.1516 12.8381L18.6574 10.382L20.921 9.93136L21.3909 7.65198L23.8103 7.16986L24.4901 6.49786L24.4998 3.50798L21.5256 3.50011ZM10.8444 17.1557C11.5987 17.91 11.5987 19.1341 10.8444 19.8883C10.0902 20.6426 8.86605 20.6426 8.1118 19.8883C7.35755 19.1341 7.35755 17.91 8.1118 17.1557C8.86605 16.4015 10.0902 16.4015 10.8444 17.1557Z" fill="#1A1C1F"/>
</g>
<defs>
<clipPath id="clip0_187_265">
<rect width="28" height="28" fill="white"/>
</clipPath>
</defs>
</svg>

<svg xmlns="http://www.w3.org/2000/svg" width="28" height="28" fill="none"><g clip-path="url(#a)"><path fill="#1A1C1F" fill-rule="evenodd" d="m21.32 1.75 3.804.01c.635.08 1.127.621 1.127 1.278l-.012 3.812c-.037.28-.164.54-.366.742L24.85 8.604c-.159.125-.345.21-.544.251l-1.434.286-.33 1.597c-.146.43-.511.755-.965.846l-1.438.288-.327 1.585c-.062.191-.17.367-.314.51l-2.552 2.556a7.729 7.729 0 1 1-5.466-5.467l9.057-9.04c.223-.172.499-.267.783-.267m.206 1.75L12 13.007l-.974-.26a6 6 0 0 0-1.548-.205 5.94 5.94 0 0 0-4.228 1.752 5.986 5.986 0 0 0 0 8.455 5.94 5.94 0 0 0 4.228 1.752 5.94 5.94 0 0 0 4.227-1.752 6 6 0 0 0 1.549-5.774L14.994 16l3.158-3.16.505-2.457 2.264-.45.47-2.28 2.42-.482.68-.672.009-2.99zM10.844 17.156a1.933 1.933 0 1 1-2.734 2.732 1.933 1.933 0 0 1 2.734-2.732" clip-rule="evenodd"/></g><defs><clipPath id="a"><path fill="#fff" d="M0 0h28v28H0z"/></clipPath></defs></svg>
